X: 15596
T: Gneevgullia
R: reel
M: 4/4
K: Eminor
E3 F G2 EF|GBAG FADA|E (3GFE BABc|dBAd BAGF|
E3 F G2 EF|GBAG FADA|E (3GFE BABc|dBAd B (3EEE||
efge fgaf|gfed ed (3Bcd|efge fgaf|gfed ed (3bcd|
efge fgaf|gfed efga|bgaf gefd|edBA GBEF||
GBdG eGdG|AD (3DDD ADFA|BE (3EEE BABc|dBAd BAGF|
GBdG eGdG|AD (3DDD ADFA|BE (3EEE BABc|dBAd BAGF||

